X:70
T:Mingotti's Maggot. JJo.070
B:J.Johnson Choice Collection Vol 8 1758
N:This is version 1, for ABC software that doesn't understand voice overlays.
N:The 2nd restrain has a 2nd voice that's just low E&A drone notes.
Z:vmp.Simon Wilson 2013 www.village-music-project.org.uk
Z:Dance added by John Chambers 2017
M:2/4
L:1/8
%Q:1/4=100
K:A
|:\
e/d/e/f/ ed | cAAB | caBd | caAf |\
e/d/e/f/ ed | cAag | fe fe/^d/ | e4 :|
|:\
B/c/B/c/ dc/B/ | caa2 |\
B/c/B/c/ dc/B/ | cAAc |\
B/c/B/c/ dc/B/ | caaf |\
e>f e/d/c/B/ | A2A,2 :|
%%begintext align
%% First Cu. cast off, and Right hands across
%% round with the 3d Cu. cast up, & Left hands
%% across at top, cross over two Cu. lead up and
%% cast off whole figure top and Bottom. Hands
%% 6 round. and Right and Left at top.
%%endtext
